svg/u1fae3.svg

<svg viewBox="0 0 128 128" xmlns="http://www.w3.org/2000/svg" xmlns:xlink="http://www.w3.org/1999/xlink">
  <g id="smiling-eyes-smiling-face_10_">
    <path id="mouth_9_" d="M-213.36,98.75c12.29,0,23.26-7.11,30.51-18.26 c1.1-1.7-1.23-4.29-3.23-2.29c-7.12,7.12-16.57,11.03-27.28,11.03h-0.21c-10.7,0-20.16-3.9-27.28-11.03c-2-2-4.33,0.59-3.23,2.29 c7.24,11.15,18.22,18.26,30.51,18.26H-213.36z" display="none" fill="#35220B"/>
  </g>
  <radialGradient id="face_1_" cx="63" cy="-2091.1001" gradientTransform="matrix(1 0 0 -1 0 -2028)" gradientUnits="userSpaceOnUse" r="56.9597">
    <stop offset="0.5" stop-color="#FDE030"/>
    <stop offset="0.92" stop-color="#F7C02B"/>
    <stop offset="1" stop-color="#F4A223"/>
  </radialGradient>
  <path id="face_10_" d="M63,119c-27.9,0-58-17.5-58-55.9S35.1,7.2,63,7.2c15.5,0,29.8,5.1,40.4,14.4 C114.9,31.8,121,46.2,121,63.1s-6.1,31.2-17.6,41.4C92.8,113.8,78.4,119,63,119z" fill="url(#face_1_)"/>
  <linearGradient id="face-2_1_" gradientTransform="matrix(1 0 0 1 0 -1338)" gradientUnits="userSpaceOnUse" x1="63" x2="63" y1="1457" y2="1345.2">
    <stop offset="0" stop-color="#F4A223"/>
    <stop offset="0.3812" stop-color="#F7C02B"/>
    <stop offset="0.7478" stop-color="#FDE030" stop-opacity="0"/>
  </linearGradient>
  <path id="face-2_2_" d="M63,119c-27.9,0-58-17.5-58-55.9S35.1,7.2,63,7.2c15.5,0,29.8,5.1,40.4,14.4 C114.9,31.8,121,46.2,121,63.1s-6.1,31.2-17.6,41.4C92.8,113.8,78.4,119,63,119z" fill="url(#face-2_1_)"/>
  <path d="M110.89,29.87c5.33,8.6,8.11,18.84,8.11,30.23c0,16.9-6.1,31.2-17.6,41.4C90.8,110.8,76.4,116,61,116 c-18.06,0-37.04-7.35-48.18-22.94C23.58,110.72,43.81,119,63,119c15.4,0,29.8-5.2,40.4-14.5C114.9,94.3,121,80,121,63.1 C121,50.36,117.53,39.04,110.89,29.87z" fill="#EB8F00"/>
  <radialGradient id="SVGID_1_" cx="35.5447" cy="72.5759" gradientTransform="matrix(0.9791 0 0 0.9301 -3.7557 10.8462)" gradientUnits="userSpaceOnUse" r="19.4444">
    <stop offset="0" stop-color="#ED7770"/>
    <stop offset="0.9" stop-color="#ED7770" stop-opacity="0"/>
  </radialGradient>
  <circle cx="31.05" cy="78.35" fill="url(#SVGID_1_)" opacity="0.8" r="17.5"/>
  <radialGradient id="SVGID_2_" cx="101.6369" cy="72.5759" gradientTransform="matrix(0.9791 0 0 0.9301 -3.7557 10.8462)" gradientUnits="userSpaceOnUse" r="19.4444">
    <stop offset="0" stop-color="#ED7770"/>
    <stop offset="0.9" stop-color="#ED7770" stop-opacity="0"/>
  </radialGradient>
  <circle cx="95.75" cy="78.35" fill="url(#SVGID_2_)" opacity="0.8" r="17.5"/>
  <g>
    <g>
      <circle cx="82.04" cy="58.16" fill="#FFFFFF" r="18.53"/>
      <circle cx="81.88" cy="58.16" fill="#422B0D" r="8.04"/>
    </g>
    <g id="peepers_1_">
      <path d="M81.1,52.69L81.1,52.69c-1.07-0.56-2.59-0.02-3.49,1.7c-0.9,1.72-0.46,3.27,0.61,3.83l0,0 c1.07,0.56,2.59,0.02,3.49-1.7C82.61,54.8,82.17,53.25,81.1,52.69z" fill="#896024"/>
    </g>
  </g>
  <path d="M70,92.41c-0.56,0-1.12,0.12-1.66,0.36c-5.96,2.72-11.34,0.17-11.56,0.06 c-1.98-0.96-4.37-0.16-5.35,1.81c-0.98,1.97-0.2,4.35,1.76,5.34c0.36,0.18,8.92,4.42,18.47,0.07c2.01-0.92,2.9-3.29,1.98-5.3 C72.97,93.28,71.52,92.41,70,92.41z" fill="#422B0D"/>
  <g>
    <g>
      <linearGradient id="SVGID_3_" gradientTransform="matrix(-0.5681 -0.823 -0.823 0.5681 181.4017 36.6179)" gradientUnits="userSpaceOnUse" x1="48.1545" x2="0.5267" y1="75.9095" y2="123.9094">
        <stop offset="0" stop-color="#FFF176"/>
        <stop offset="1" stop-color="#FFC400"/>
      </linearGradient>
      <path d="M76.68,97.9c-1.46-1.9-4.02-6.07-8.8-12.22c-3.34-4.29-15.77-12.94-19.08-17.47 c-1.71-2.34-3.15-4.69-2.23-6.42c3.06-5.77,6.93-0.85,6.93-0.85s-8.84-4.91-3.11-10.09c2.51-2.26,4.94-1.99,10.12,1.87 c0,0,22.27,15.35,24.14,14.07c1.86-1.29-4.14-25.54-4.44-33.36c-0.16-4.22-0.34-7.65,3.56-8.7c5.68-1.54,6.35,6.44,6.24,5.29 s1.53-4.16,5.61-4.96c3.16-0.63,4.72,3.41,5.74,9.46c1.02,6.05,6.61,28.07,9.29,29.92c0,0,0.94-11.93,6.74-16.18 c2.63-1.93,7.22-2.7,7.79,0.56c0.33,1.92,0.33,5.24-1.19,10.15c-1.31,4.21-1.22,14.66-0.76,22.35 c0.39,6.49,1.99,16.95-12.5,24.92C94.83,114.97,83.09,106.19,76.68,97.9z" fill="url(#SVGID_3_)"/>
    </g>
    <path d="M79.53,33.75c-0.35-3.34-0.51-6.02,1.84-8.25c2.59-2.47,5.47-2.42,6.92-0.95 c0.61,0.62,1.23,1.59,1.84,3.05c0.94-2.41,2.69-3.48,5.16-3.84c2.87-0.42,5.29,1.68,6.33,6.21c0.62,2.69,7.14,28.2,8.41,29.62 c0,0,0.02-9.3,8.64-13.4c2.36-1.12,5.12-1.02,7.22,1.22s-0.48,6.31-2.16,16.97c-0.91,5.78-0.65,12.64-0.65,12.64 s-2.74-3.68-1.4-16.56c0.5-4.83,3.87-9.86,1.44-11.66c-1.57-1.16-3.16-1.39-6.13,1.35c-6.11,5.64-4.6,14.79-4.94,15.93 c-0.34,1.14-1.49,1.8-3.53-3.61c-2.03-5.4-7.29-25.43-8.91-31.6c-1.31-4.98-3.14-5.39-5.42-4.18c-2.84,1.5-2,6.24-1.59,7.79 c0.34,1.28,3.6,18.82,5.39,24.87c0.38,1.28,1.37,3.26,1.24,4.17c-0.15,1-3.58,2.94-4.2-2.23c-0.68-5.67-4.96-26.41-4.96-26.41 s-0.67-4.28-1.9-6.97c-0.56-1.23-2.28-2.65-5.12-0.41c-2.43,1.92-1.09,7.71-1.09,7.71l4.62,28.09c0,0,0.73,3.29-0.65,4.56 c-1.6,1.48-4.39-0.65-4.39-0.65s-19.29-12.73-22.3-14.37c-3-1.64-4.85-3.55-7.69-1.72c-0.82,0.53-2.46,2.84,0.29,5.21 c2.75,2.37,11.91,9.7,22.66,16.79c0.62,0.42,5.21,1.67,3.3,4.76c-1.9,3.09-5.06-1.58-5.62-2.01C65.03,70.3,56.9,63.91,52.14,61.32 c-3.58-1.95-5.73,2.12-2.35,5.87c2.21,2.46,5.63,5.66,9.6,9.01c3.88,3.27,7.09,6.55,8.77,8.75c4.11,5.36,5.9,8.38,8.69,12.3 c11.9,14.34,24.49,13.81,38.02,6.33c-1.76,2.01-25.49,19.29-42.38-7.45c-1.53-2.28-3.63-5.4-6.68-9.39 c-1.49-1.95-4.78-4.95-8.33-8.29S43.56,66.27,45.27,61.46c1.17-3.28,4.1-3.44,4.1-3.44s-4.38-5.13,1.29-9.15 c3.08-2.18,7.76,1.14,7.76,1.14l22.1,14.21c0,0,0.95,0.71,2.14,1.31c1.59,0.79,1.48-1.54,1.39-2.1 C83.17,57.94,79.81,36.46,79.53,33.75z" fill="#EB8F00"/>
  </g>
  <g>
    <radialGradient id="prop-2_1_" cx="58.7255" cy="87.6971" gradientTransform="matrix(0.7789 -0.6272 -0.6272 -0.7789 35.3961 162.4946)" gradientUnits="userSpaceOnUse" r="71.7862">
      <stop offset="0.27" stop-color="#FFF176"/>
      <stop offset="1" stop-color="#FFC400"/>
    </radialGradient>
    <path id="prop-2" d="M56.81,39.61c-4.11-1.2-6.83,5.6-6.83,5.6s0.77-4.32,1.27-8.1 c0.32-2.42-0.74-6.19-3.39-7.19c-2.66-0.99-5.83,1.76-6.64,4.05l-3.19,8.94c0,0,1.53-2.93-1.02-7.57c-0.87-2-3.2-2.91-5.2-2.04 c-0.38,0.16-0.72,0.38-1.03,0.66c-1.38,1.33-2.36,3.02-2.83,4.88c-1.95,6.9-7.48,24.93-10.37,26.91c-1.13,0.77-1.35,0.68-2.96-5.88 c-0.81-4.06-3.38-7.54-7.03-9.5c-2.11-1.13-5.86,1.11-5.59,3.62c0.18,1.86,2.02,5.32,3.05,9.45c1.64,6.82,1.6,17.8,1.68,18.8 c0.61,7.33,1.76,20.98,16,25.86c12.61,4.33,25.57-5.43,30.18-12.97C61.75,80.8,66.36,63.2,66.43,62.86 c0.81-3.6,0.75-7.87-2.11-9.51c-3.52-2.04-5.9,2.77-5.9,2.77c1.12-3.1,1.74-6.36,1.82-9.65C60.18,43.17,59.58,40.43,56.81,39.61z" fill="url(#prop-2_1_)"/>
    <path d="M61.9,46.43c-0.04-2.12-0.13-7.08-4.62-8.41c-1.6-0.45-3.17-0.28-4.55,0.5 c0.67-3.33-0.32-9.04-5.27-10.41c-1.84-0.51-4.27-0.12-6.41,2.61c-1.55,1.97-2.12,4.74-2.12,4.74c-0.13-0.28-2.03-5.71-8.04-2.59 c-2.42,1.26-3.68,4.53-4.2,6.65C23.32,51.4,17.4,64.9,17.15,63.89c0.08-6.68-4.04-13.16-8.91-15.04c-2.11-1.13-7.53,1.13-7.07,4.65 c0.38,2.89,3.32,8.13,4.08,13.58c0.59,4.21,0.7,20.26,3.2,26.23c0,0-0.38-4.36-0.6-10.77c-0.24-6.83-0.36-15.83-1.2-19.5 c-0.73-3.28-2.45-6.53-3.01-9.23c-0.16-1.18,1.17-3.51,4.41-2.07c3.24,1.44,5.03,4.91,5.97,9.62c1.29,5.25,0.61,6.05,2.1,6.23 c4.99,0.61,11.71-23.34,13.43-28.35c0.39-1.56,1.21-2.98,2.31-4.04c2.09-2.23,4.62,1.16,4.62,1.16c1.52,3.24,1.1,3.58,0.23,8.02 c-0.62,3.16-3.43,13.55-6.05,19.3c0,0,0.88,0.94,2.46-1.28c1.58-2.22,5.53-13.73,7.07-20.67c0,0,1.75-9.3,4.68-10.55 c2.98-1.27,4.11,0.59,4.64,2.8s0.1,5.73-1.12,10.66c-2.19,8.85-6.23,21.76-6.23,21.76s0.87,0.72,2.18-1.14 c2.65-3.79,7.01-20.51,7.01-20.51c0.31-1.33,2.41-4.5,5-3.55c1.29,0.39,2.3,1.93,2.2,6.05c-0.1,4.94-3.51,16.16-7.08,25.18 c0,0,1.18,0.44,2.49-1.64s5.13-12.67,6-14.03c0.87-1.36,1.75-2.68,3.66-1.92c2.5,1.18,2.47,3.72,1.57,7.7 c-0.04,0.17-4.43,18.93-13.37,32.99c-4.72,7.43-12.9,12.15-25.6,13.41c9.97,2.03,23.2-4.13,28.47-12.89 c8.88-14.74,13.69-32.62,13.72-32.78c0.65-2.88,2-8.89-3.48-11.47c-1.31-0.52-2.51-0.53-3.57-0.23 C61.68,49.9,61.86,48.18,61.9,46.43z" fill="#EB8F00"/>
  </g>
</svg>

<svg viewBox="0 0 128 128" xmlns="http://www.w3.org/2000/svg">
  <defs>
    <radialGradient id="SVGID_1_" cx="31.70883" cy="84.237227" gradientTransform="matrix(0.9791 0 0 0.9301 0 0)" gradientUnits="userSpaceOnUse" r="19.4444">
      <stop offset="0" stop-color="#ED7770"/>
      <stop offset="0.9" stop-color="#ED7770" stop-opacity="0"/>
    </radialGradient>
    <radialGradient id="SVGID_2_" cx="97.80103" cy="84.237227" gradientTransform="matrix(0.9791 0 0 0.9301 0 0)" gradientUnits="userSpaceOnUse" r="19.4444">
      <stop offset="0" stop-color="#ED7770"/>
      <stop offset="0.9" stop-color="#ED7770" stop-opacity="0"/>
    </radialGradient>
    <linearGradient id="face-2_1_" gradientUnits="userSpaceOnUse" x1="63" x2="63" y1="119" y2="7.2">
      <stop offset="0" stop-color="#F4A223"/>
      <stop offset="0.3812" stop-color="#F7C02B"/>
      <stop offset="0.7478" stop-color="#FDE030" stop-opacity="0"/>
    </linearGradient>
    <radialGradient id="face_1_" cx="63" cy="-63.1001" gradientTransform="matrix(1 0 0 -1 0 0)" gradientUnits="userSpaceOnUse" r="56.9597">
      <stop offset="0.5" stop-color="#FDE030"/>
      <stop offset="0.92" stop-color="#F7C02B"/>
      <stop offset="1" stop-color="#F4A223"/>
    </radialGradient>
    <radialGradient id="prop-2_1_" cx="-15.616255" cy="-61.060701" gradientTransform="matrix(0.7789 -0.6272 -0.6272 -0.7789 0 0)" gradientUnits="userSpaceOnUse" r="71.7862">
      <stop offset="0.27" stop-color="#FFF176"/>
      <stop offset="1" stop-color="#FFC400"/>
    </radialGradient>
    <linearGradient id="SVGID_3_" gradientTransform="matrix(-0.5681 -0.823 -0.823 0.5681 0 0)" gradientUnits="userSpaceOnUse" x1="-85.027466" x2="-132.655266" y1="-52.572912" y2="-4.573012">
      <stop offset="0" stop-color="#FFF176"/>
      <stop offset="1" stop-color="#FFC400"/>
    </linearGradient>
  </defs>
  <path id="face_10_" d="M63,119 C35.1,119 5,101.5 5,63.1 C5,24.7 35.1,7.2 63,7.2 C78.5,7.2 92.8,12.3 103.4,21.6 C114.9,31.8 121,46.2 121,63.1 C121,80 114.9,94.3 103.4,104.5 C92.8,113.8 78.4,119 63,119 Z" fill="url(#face_1_)"/>
  <path id="face-2_2_" d="M63,119 C35.1,119 5,101.5 5,63.1 C5,24.7 35.1,7.2 63,7.2 C78.5,7.2 92.8,12.3 103.4,21.6 C114.9,31.8 121,46.2 121,63.1 C121,80 114.9,94.3 103.4,104.5 C92.8,113.8 78.4,119 63,119 Z" fill="url(#face-2_1_)"/>
  <path d="M110.89,29.87 C116.22,38.47 119,48.71 119,60.1 C119,77 112.9,91.3 101.4,101.5 C90.8,110.8 76.4,116 61,116 C42.94,116 23.96,108.65 12.82,93.06 C23.58,110.72 43.81,119 63,119 C78.4,119 92.8,113.8 103.4,104.5 C114.9,94.3 121,80 121,63.1 C121,50.36 117.53,39.04 110.89,29.87 Z" fill="#EB8F00"/>
  <path d="M48.55,78.35 A17.5 17.5 0 1 1 13.55,78.35 A17.5 17.5 0 1 1 48.55,78.35 Z" fill="url(#SVGID_1_)" opacity="0.8"/>
  <path d="M113.25,78.35 A17.5 17.5 0 1 1 78.25,78.35 A17.5 17.5 0 1 1 113.25,78.35 Z" fill="url(#SVGID_2_)" opacity="0.8"/>
  <path d="M100.57,58.16 A18.53 18.53 0 1 1 63.51,58.16 A18.53 18.53 0 1 1 100.57,58.16 Z" fill="#FFFFFF"/>
  <path d="M89.92,58.16 A8.04 8.04 0 1 1 73.84,58.16 A8.04 8.04 0 1 1 89.92,58.16 Z" fill="#422B0D"/>
  <path d="M81.1,52.69 L81.1,52.69 C80.03,52.13 78.51,52.67 77.61,54.39 C76.71,56.11 77.15,57.66 78.22,58.22 L78.22,58.22 C79.29,58.78 80.81,58.24 81.71,56.52 C82.61,54.8 82.17,53.25 81.1,52.69 Z" fill="#896024"/>
  <path d="M70,92.41 C69.44,92.41 68.88,92.53 68.34,92.77 C62.38,95.49 57,92.94 56.78,92.83 C54.8,91.87 52.41,92.67 51.43,94.64 C50.45,96.61 51.23,98.99 53.19,99.98 C53.55,100.16 62.11,104.4 71.66,100.05 C73.67,99.13 74.56,96.76 73.64,94.75 C72.97,93.28 71.52,92.41 70,92.41 Z" fill="#422B0D"/>
  <path d="M76.68,97.9 C75.22,96 72.66,91.83 67.88,85.68 C64.54,81.39 52.11,72.74 48.8,68.21 C47.09,65.87 45.65,63.52 46.57,61.79 C49.63,56.02 53.5,60.94 53.5,60.94 C53.5,60.94 44.66,56.03 50.39,50.85 C52.9,48.59 55.33,48.86 60.51,52.72 C60.51,52.72 82.78,68.07 84.65,66.79 C86.51,65.5 80.51,41.25 80.21,33.43 C80.05,29.21 79.87,25.78 83.77,24.73 C89.45,23.19 90.12,31.17 90.01,30.02 C89.9,28.87 91.54,25.86 95.62,25.06 C98.78,24.43 100.34,28.47 101.36,34.52 C102.38,40.57 107.97,62.59 110.65,64.44 C110.65,64.44 111.59,52.51 117.39,48.26 C120.02,46.33 124.61,45.56 125.18,48.82 C125.51,50.74 125.51,54.06 123.99,58.97 C122.68,63.18 122.77,73.63 123.23,81.32 C123.62,87.81 125.22,98.27 110.73,106.24 C94.83,114.97 83.09,106.19 76.68,97.9 Z" fill="url(#SVGID_3_)"/>
  <path d="M79.53,33.75 C79.18,30.41 79.02,27.73 81.37,25.5 C83.96,23.03 86.84,23.08 88.29,24.55 C88.9,25.17 89.52,26.14 90.13,27.6 C91.07,25.19 92.82,24.12 95.29,23.76 C98.16,23.34 100.58,25.44 101.62,29.97 C102.24,32.66 108.76,58.17 110.03,59.59 C110.03,59.59 110.05,50.29 118.67,46.19 C121.03,45.07 123.79,45.17 125.89,47.41 C127.99,49.65 125.41,53.72 123.73,64.38 C122.82,70.16 123.08,77.02 123.08,77.02 C123.08,77.02 120.34,73.34 121.68,60.46 C122.18,55.63 125.55,50.6 123.12,48.8 C121.55,47.64 119.96,47.41 116.99,50.15 C110.88,55.79 112.39,64.94 112.05,66.08 C111.71,67.22 110.56,67.88 108.52,62.47 C106.49,57.07 101.23,37.04 99.61,30.87 C98.3,25.89 96.47,25.48 94.19,26.69 C91.35,28.19 92.19,32.93 92.6,34.48 C92.94,35.76 96.2,53.3 97.99,59.35 C98.37,60.63 99.36,62.61 99.23,63.52 C99.08,64.52 95.65,66.46 95.03,61.29 C94.35,55.62 90.07,34.88 90.07,34.88 C90.07,34.88 89.4,30.6 88.17,27.91 C87.61,26.68 85.89,25.26 83.05,27.5 C80.62,29.42 81.96,35.21 81.96,35.21 L86.58,63.3 C86.58,63.3 87.31,66.59 85.93,67.86 C84.33,69.34 81.54,67.21 81.54,67.21 C81.54,67.21 62.25,54.48 59.24,52.84 C56.24,51.2 54.39,49.29 51.55,51.12 C50.73,51.65 49.09,53.96 51.84,56.33 C54.59,58.7 63.75,66.03 74.5,73.12 C75.12,73.54 79.71,74.79 77.8,77.88 C75.9,80.97 72.74,76.3 72.18,75.87 C65.03,70.3 56.9,63.91 52.14,61.32 C48.56,59.37 46.41,63.44 49.79,67.19 C52,69.65 55.42,72.85 59.39,76.2 C63.27,79.47 66.48,82.75 68.16,84.95 C72.27,90.31 74.06,93.33 76.85,97.25 C88.75,111.59 101.34,111.06 114.87,103.58 C113.11,105.59 89.38,122.87 72.49,96.13 C70.96,93.85 68.86,90.73 65.81,86.74 C64.32,84.79 61.03,81.79 57.48,78.45 C53.93,75.11 43.56,66.27 45.27,61.46 C46.44,58.18 49.37,58.02 49.37,58.02 C49.37,58.02 44.99,52.89 50.66,48.87 C53.74,46.69 58.42,50.01 58.42,50.01 L80.52,64.22 C80.52,64.22 81.47,64.93 82.66,65.53 C84.25,66.32 84.14,63.99 84.05,63.43 C83.17,57.94 79.81,36.46 79.53,33.75 Z" fill="#EB8F00"/>
  <path id="prop-2" d="M56.81,39.61 C52.7,38.41 49.98,45.21 49.98,45.21 C49.98,45.21 50.75,40.89 51.25,37.11 C51.57,34.69 50.51,30.92 47.86,29.92 C45.2,28.93 42.03,31.68 41.22,33.97 L38.03,42.91 C38.03,42.91 39.56,39.98 37.01,35.34 C36.14,33.34 33.81,32.43 31.81,33.3 C31.43,33.46 31.09,33.68 30.78,33.96 C29.4,35.29 28.42,36.98 27.95,38.84 C26,45.74 20.47,63.77 17.58,65.75 C16.45,66.52 16.23,66.43 14.62,59.87 C13.81,55.81 11.24,52.33 7.59,50.37 C5.48,49.24 1.73,51.48 2,53.99 C2.18,55.85 4.02,59.31 5.05,63.44 C6.69,70.26 6.65,81.24 6.73,82.24 C7.34,89.57 8.49,103.22 22.73,108.1 C35.34,112.43 48.3,102.67 52.91,95.13 C61.75,80.8 66.36,63.2 66.43,62.86 C67.24,59.26 67.18,54.99 64.32,53.35 C60.8,51.31 58.42,56.12 58.42,56.12 C59.54,53.02 60.16,49.76 60.24,46.47 C60.18,43.17 59.58,40.43 56.81,39.61 Z" fill="url(#prop-2_1_)"/>
  <path d="M61.9,46.43 C61.86,44.31 61.77,39.35 57.28,38.02 C55.68,37.57 54.11,37.74 52.73,38.52 C53.4,35.19 52.41,29.48 47.46,28.11 C45.62,27.6 43.19,27.99 41.05,30.72 C39.5,32.69 38.93,35.46 38.93,35.46 C38.8,35.18 36.9,29.75 30.89,32.87 C28.47,34.13 27.21,37.4 26.69,39.52 C23.32,51.4 17.4,64.9 17.15,63.89 C17.23,57.21 13.11,50.73 8.24,48.85 C6.13,47.72 0.71,49.98 1.17,53.5 C1.55,56.39 4.49,61.63 5.25,67.08 C5.84,71.29 5.95,87.34 8.45,93.31 C8.45,93.31 8.07,88.95 7.85,82.54 C7.61,75.71 7.49,66.71 6.65,63.04 C5.92,59.76 4.2,56.51 3.64,53.81 C3.48,52.63 4.81,50.3 8.05,51.74 C11.29,53.18 13.08,56.65 14.02,61.36 C15.31,66.61 14.63,67.41 16.12,67.59 C21.11,68.2 27.83,44.25 29.55,39.24 C29.94,37.68 30.76,36.26 31.86,35.2 C33.95,32.97 36.48,36.36 36.48,36.36 C38,39.6 37.58,39.94 36.71,44.38 C36.09,47.54 33.28,57.93 30.66,63.68 C30.66,63.68 31.54,64.62 33.12,62.4 C34.7,60.18 38.65,48.67 40.19,41.73 C40.19,41.73 41.94,32.43 44.87,31.18 C47.85,29.91 48.98,31.77 49.51,33.98 C50.04,36.19 49.61,39.71 48.39,44.64 C46.2,53.49 42.16,66.4 42.16,66.4 C42.16,66.4 43.03,67.12 44.34,65.26 C46.99,61.47 51.35,44.75 51.35,44.75 C51.66,43.42 53.76,40.25 56.35,41.2 C57.64,41.59 58.65,43.13 58.55,47.25 C58.45,52.19 55.04,63.41 51.47,72.43 C51.47,72.43 52.65,72.87 53.96,70.79 C55.27,68.71 59.09,58.12 59.96,56.76 C60.83,55.4 61.71,54.08 63.62,54.84 C66.12,56.02 66.09,58.56 65.19,62.54 C65.15,62.71 60.76,81.47 51.82,95.53 C47.1,102.96 38.92,107.68 26.22,108.94 C36.19,110.97 49.42,104.81 54.69,96.05 C63.57,81.31 68.38,63.43 68.41,63.27 C69.06,60.39 70.41,54.38 64.93,51.8 C63.62,51.28 62.42,51.27 61.36,51.57 C61.68,49.9 61.86,48.18 61.9,46.43 Z" fill="#EB8F00"/>
</svg>
